X:100
T:Reels simple chords 134
M:3/4
L:1/8
K:Em
Bc [dG,B,D]d dd | ^c2 d2 [e2G,2B,2D2] | d2 B4 | [DG,B,D]D DD G2 | B2 [e2A,2C2E2] d2 |
c4 [cA,CE]c | cc B2 c2 | [f2A,2C2E2] e2 c4 | [f2D,2F,2A,2C2] e2 |
c2 A2 [e2G,2B,2D2] | d2 B4 | [dG,B,D]d dd ^c2 | d2 [e2G,2B,2D2] d2 |
B4 [DG,B,D]D | DD G2 B2 | [e2A,2C2E2] d2 c4 | [cA,CE]c cc |
B2 c2 [f2A,2C2E2] | e2 c4 | [fD,F,A,C]e dc B2 | A2 [G4G,4B,4D4] |
GA Bc [dG,B,D]d | dd B2 B2 | [dG,B,D]d dd B2 | B2 [d4G,4B,4D4] |
e2>d2 [d2A,2C2E2] | ^c2 =c4 | [cA,CE]d cB A2 | A2 [cA,CE]d cB |
A2 A2 [f3D,3F,3A,3C3] |e2< f2e | [e2G,2B,2D2] d2 e2 | d2 [d2G,2B,2D2] d2 |
de dc [B2G,2B,2D2] | B2 B4 | [d4G,4B,4D4] e3 |d [d2A,2C2E2] ^c2 |
c4 [c2A,2C2E2] | c2 cd cB | [A2A,2C2E2] A2 A4 | [dD,F,A,C]d dd |
e2 f4< [g4G,4B,4D4] |


